public/svg/icon/cnx.svg

<svg xmlns="http://www.w3.org/2000/svg" xmlns:xlink="http://www.w3.org/1999/xlink" width="32" height="32" viewBox="0 0 32 32"><defs><linearGradient id="cnx-c" x1="50%" x2="50%" y1="0%" y2="100%"><stop offset="0%" stop-color="#FFF" stop-opacity=".5"/><stop offset="100%" stop-opacity=".5"/></linearGradient><circle id="cnx-b" cx="16" cy="15" r="15"/><filter id="cnx-a" width="111.7%" height="111.7%" x="-5.8%" y="-4.2%" filterUnits="objectBoundingBox"><feOffset dy=".5" in="SourceAlpha" result="shadowOffsetOuter1"/><feGaussianBlur in="shadowOffsetOuter1" result="shadowBlurOuter1" stdDeviation=".5"/><feComposite in="shadowBlurOuter1" in2="SourceAlpha" operator="out" result="shadowBlurOuter1"/><feColorMatrix in="shadowBlurOuter1" values="0 0 0 0 0 0 0 0 0 0 0 0 0 0 0 0 0 0 0.199473505 0"/></filter><filter id="cnx-d" width="115.9%" height="115.9%" x="-8%" y="-5.7%" filterUnits="objectBoundingBox"><feOffset dy=".5" in="SourceAlpha" result="shadowOffsetOuter1"/><feGaussianBlur in="shadowOffsetOuter1" result="shadowBlurOuter1" stdDeviation=".5"/><feColorMatrix in="shadowBlurOuter1" result="shadowMatrixOuter1" values="0 0 0 0 0 0 0 0 0 0 0 0 0 0 0 0 0 0 0.204257246 0"/><feMerge><feMergeNode in="shadowMatrixOuter1"/><feMergeNode in="SourceGraphic"/></feMerge></filter></defs><g fill="none" fill-rule="evenodd"><use fill="#000" filter="url(#cnx-a)" xlink:href="#cnx-b"/><use fill="#4C6BAE" xlink:href="#cnx-b"/><use fill="url(#cnx-c)" style="mix-blend-mode:soft-light" xlink:href="#cnx-b"/><circle cx="16" cy="15" r="14.5" stroke="#000" stroke-opacity=".097"/><g fill="#FFF" filter="url(#cnx-d)" transform="translate(5 4)"><path d="M1.38271561,12.009567 L-8.8817842e-16,12.1532258 C0.739247312,10.0833333 2.20295699,8.42741935 4.39112903,7.18548387 C4.59811828,8.90053763 5.41129032,10.3198925 6.83064516,11.4435484 L5.53007873,11.5786722 C5.78748089,14.0404057 7.66874984,16.0189597 10.0835409,16.4239896 C9.21454917,17.0784743 8.21896027,17.4734347 7.09677419,17.608871 C7.7780636,18.809238 8.58393148,19.7915928 9.51437782,20.5559352 C5.20624875,19.8916227 1.83651277,16.3836514 1.38271561,12.009567 Z M20.6172844,9.99043296 L22,9.84677419 C21.2607527,11.9166667 19.797043,13.5725806 17.608871,14.8145161 C17.4018817,13.0994624 16.5887097,11.6801075 15.1693548,10.5564516 L16.4699213,10.4213278 C16.2099289,7.93482221 14.2932238,5.94126934 11.8433989,5.56426225 C12.7086882,4.91679738 13.6990606,4.52575298 14.8145161,4.39112903 C14.1284404,3.18232895 13.3160296,2.19461518 12.3772838,1.42798772 C16.7371558,2.04973332 20.1596902,5.57974922 20.6172844,9.99043296 Z" opacity=".5"/><path d="M11.9217619,20.6259907 L12.0645161,22 C9.99462366,21.2607527 8.33870968,19.797043 7.09677419,17.608871 C8.81182796,17.4018817 10.2311828,16.5887097 11.3548387,15.1693548 L11.490843,16.478396 C14.0181182,16.2548864 16.054302,14.3220019 16.4357378,11.8433989 C17.0832026,12.7086882 17.474247,13.6990606 17.608871,14.8145161 C18.8176711,14.1284404 19.8053848,13.3160296 20.5720123,12.3772838 C19.9461463,16.766049 16.3733358,20.2050117 11.9217619,20.6259907 Z M9.99043296,1.38271561 L9.84677419,-8.8817842e-16 C11.9166667,0.739247312 13.5725806,2.20295699 14.8145161,4.39112903 C13.0994624,4.59811828 11.6801075,5.41129032 10.5564516,6.83064516 L10.4213278,5.53007873 C7.93482221,5.79007109 5.94126934,7.70677623 5.56426225,10.1566011 C4.91679738,9.29131183 4.52575298,8.30093943 4.39112903,7.18548387 C3.18232895,7.8715596 2.19461518,8.68397036 1.42798772,9.62271616 C2.04973332,5.26284417 5.57974922,1.84030984 9.99043296,1.38271561 Z"/></g></g></svg>

<svg xmlns="http://www.w3.org/2000/svg" xmlns:xlink="http://www.w3.org/1999/xlink" width="32" height="32" viewBox="0 0 32 32"><defs><filter id="a" width="111.7%" height="111.7%" x="-5.8%" y="-4.2%" filterUnits="objectBoundingBox"><feOffset dy=".5" in="SourceAlpha" result="shadowOffsetOuter1"/><feGaussianBlur in="shadowOffsetOuter1" result="shadowBlurOuter1" stdDeviation=".5"/><feComposite in="shadowBlurOuter1" in2="SourceAlpha" operator="out" result="shadowBlurOuter1"/><feColorMatrix in="shadowBlurOuter1" values="0 0 0 0 0 0 0 0 0 0 0 0 0 0 0 0 0 0 0.199473505 0"/></filter><filter id="d" width="115.9%" height="115.9%" x="-8%" y="-5.7%" filterUnits="objectBoundingBox"><feOffset dy=".5" in="SourceAlpha" result="shadowOffsetOuter1"/><feGaussianBlur in="shadowOffsetOuter1" result="shadowBlurOuter1" stdDeviation=".5"/><feColorMatrix in="shadowBlurOuter1" result="shadowMatrixOuter1" values="0 0 0 0 0 0 0 0 0 0 0 0 0 0 0 0 0 0 0.204257246 0"/><feMerge><feMergeNode in="shadowMatrixOuter1"/><feMergeNode in="SourceGraphic"/></feMerge></filter><linearGradient id="c" x1="50%" x2="50%" y1="0%" y2="100%"><stop offset="0%" stop-color="#FFF" stop-opacity=".5"/><stop offset="100%" stop-opacity=".5"/></linearGradient><circle id="b" cx="16" cy="15" r="15"/></defs><g fill="none" fill-rule="evenodd"><use fill="#000" filter="url(#a)" xlink:href="#b"/><use fill="#4C6BAE" xlink:href="#b"/><use fill="url(#c)" style="mix-blend-mode:soft-light" xlink:href="#b"/><circle cx="16" cy="15" r="14.5" stroke="#000" stroke-opacity=".097"/><g fill="#FFF" filter="url(#d)" transform="translate(5 4)"><path d="M1.383 12.01L0 12.153c.74-2.07 2.203-3.726 4.391-4.968.207 1.716 1.02 3.135 2.44 4.259l-1.3.135a5.503 5.503 0 004.553 4.845 6.084 6.084 0 01-2.987 1.185c.681 1.2 1.487 2.183 2.417 2.947a9.674 9.674 0 01-8.131-8.546zm19.234-2.02L22 9.847c-.74 2.07-2.203 3.726-4.391 4.968-.207-1.716-1.02-3.135-2.44-4.259l1.3-.135a5.503 5.503 0 00-4.626-4.857 6.085 6.085 0 012.972-1.173c-.687-1.209-1.499-2.196-2.438-2.963a9.674 9.674 0 018.24 8.562z" opacity=".5"/><path d="M11.922 20.626L12.065 22c-2.07-.74-3.726-2.203-4.968-4.391 1.715-.207 3.134-1.02 4.258-2.44l.136 1.31a5.503 5.503 0 004.945-4.636 6.085 6.085 0 011.173 2.972c1.209-.687 2.196-1.499 2.963-2.438a9.674 9.674 0 01-8.65 8.249zM9.99 1.383L9.847 0c2.07.74 3.726 2.203 4.968 4.391-1.716.207-3.135 1.02-4.259 2.44l-.135-1.3a5.503 5.503 0 00-4.857 4.626 6.085 6.085 0 01-1.173-2.972c-1.209.687-2.196 1.499-2.963 2.438a9.674 9.674 0 018.562-8.24z"/></g></g></svg>
